mev-governance-ui/src/logo_poste.svg

<?xml version="1.0" encoding="UTF-8" standalone="no"?>
<svg
   width="512"
   height="512"
   viewBox="0 0 512 512"
   version="1.1"
   id="svg4"
   xmlns="http://www.w3.org/2000/svg"
   xmlns:svg="http://www.w3.org/2000/svg">
  <defs
     id="defs4" />
  <g
     id="g4">
    <path
       d="m 156,280 v 60 H 109 V 172 l 47.25,0.01 c 53.04,0.02 59.74,0.67 71.57,6.97 11.75,6.27 21.18,18.4 24.6,31.66 3.26,12.67 1.55,30.56 -3.97,41.45 -5.62,11.1 -17.58,20.58 -30.63,24.31 -6.72,1.91 -28.84,3.56 -48.07,3.59 z m -8.32,28 c 0.75,2.1 1.71,-0.56 3.89,-10.75 0.96,-4.54 2.13,-8.25 2.59,-8.25 0.46,0 0.84,-2.94 0.84,-6.53 0,-7.08 1.43,-8.93 5.12,-6.62 2.23,1.38 47.6,1.41 48.46,0.03 0.29,-0.49 2.32,-0.88 4.49,-0.88 2.18,0 4.85,-0.45 5.94,-1 l 3.98,-2 c 1.09,-0.55 2.78,-1 3.76,-1 0.97,0 2.34,-0.92 3.04,-2.04 0.7,-1.12 1.71,-1.77 2.23,-1.45 1.49,0.92 10.79,-8.35 12.16,-12.13 0.67,-1.86 1.53,-3.38 1.91,-3.38 1.19,0 4.26,-7.31 5.23,-12.5 1.2,-6.34 1.33,-21.76 0.24,-27 -0.83,-3.96 -5.31,-14.24 -7.78,-17.88 -4.03,-5.91 -16.48,-15.6 -20.07,-15.61 -0.98,-0.01 -2.86,-0.72 -4.19,-1.59 -4.68,-3.07 -14.07,-3.7 -61.27,-4.1 L 111,172.91 v 57.34 c 0,34.45 0.38,57.73 0.94,58.3 0.52,0.52 1.08,3.09 1.25,5.72 0.17,2.62 0.65,4.75 1.06,4.75 0.41,-0.01 6.59,-0.02 13.72,-0.02 h 12.98 l 1.63,-3.15 c 2.04,-3.95 3.09,-2.58 3.95,5.14 0.34,3.03 0.85,6.18 1.15,7.01 z M 356,206.03 V 340 H 308 V 206.03 L 282.75,205.77 257.5,205.5 257.23,188.75 256.95,172 h 151.1 l -0.28,16.75 -0.27,16.75 -25.75,0.27 z m -43.27,95.97 0.71,6.5 0.77,-8.94 c 0.43,-4.92 1.22,-9.39 1.75,-9.92 1.19,-1.19 1.5,-0.32 3.09,8.68 1.14,6.45 2.31,7.65 3.12,3.18 0.33,-1.87 1.25,-2.02 14.4,-2.28 l 14.05,-0.27 1.17,-12.73 c 0.64,-6.99 1.47,-27.91 1.83,-46.46 0.47,-24.16 1,-34.03 1.85,-34.74 0.69,-0.57 11.61,-1.1 26.11,-1.25 l 24.92,-0.27 0.31,-15.25 0.3,-15.25 H 259 v 14.89 c 0,12.66 0.24,14.99 1.58,15.5 0.87,0.34 11.87,0.61 24.44,0.61 14.91,0 23.09,0.37 23.51,1.05 0.36,0.58 0.59,13.07 0.52,27.75 -0.07,14.69 0.32,30.97 0.86,36.2 0.54,5.23 1.23,13.33 1.54,18 0.32,4.67 0.89,11.42 1.28,15 z M 191,247.69 c -6.32,1.72 -34.89,1.75 -35.55,0.04 -0.27,-0.7 -0.37,-11.17 -0.22,-23.25 l 0.27,-21.98 17.5,0.04 c 22.8,0.04 26.11,1.08 31.84,9.96 2.21,3.43 2.58,5.14 2.62,12 0.07,13.21 -4.75,19.99 -16.46,23.19 z M 156.5,203.5 155.96,247 h 14.97 c 17.86,0 23.42,-1.02 28.52,-5.22 5,-4.12 6.55,-8.17 6.53,-17 -0.02,-9.6 -2.48,-14.18 -9.72,-18.08 -5.06,-2.72 -5.64,-2.8 -22.48,-3 z"
       fill="#0c4d99"
       id="path1" />
    <path
       d="m 147.68,308 c -0.3,-0.83 -0.81,-3.98 -1.15,-7.01 -0.86,-7.72 -1.91,-9.09 -3.95,-5.14 l -1.63,3.15 h -12.98 c -7.13,0 -13.31,0.01 -13.72,0.02 -0.41,0 -0.89,-2.13 -1.06,-4.75 -0.17,-2.63 -0.73,-5.2 -1.25,-5.72 -0.56,-0.57 -0.94,-23.85 -0.94,-58.3 v -57.34 l 47.25,0.41 c 47.2,0.4 56.59,1.03 61.27,4.1 1.33,0.87 3.21,1.58 4.19,1.59 3.59,0.01 16.04,9.7 20.07,15.61 2.47,3.64 6.95,13.92 7.78,17.88 1.09,5.24 0.96,20.66 -0.24,27 -0.97,5.19 -4.04,12.5 -5.23,12.5 -0.38,0 -1.24,1.52 -1.91,3.38 -1.37,3.78 -10.67,13.05 -12.16,12.13 -0.52,-0.32 -1.53,0.33 -2.23,1.45 -0.7,1.12 -2.07,2.04 -3.04,2.04 -0.98,0 -2.67,0.45 -3.76,1 l -3.98,2 c -1.09,0.55 -3.76,1 -5.94,1 -2.17,0 -4.2,0.39 -4.49,0.88 -0.86,1.38 -46.23,1.35 -48.46,-0.03 -3.69,-2.31 -5.12,-0.46 -5.12,6.62 0,3.59 -0.38,6.53 -0.84,6.53 -0.46,0 -1.63,3.71 -2.59,8.25 -2.18,10.19 -3.14,12.85 -3.89,10.75 z m 165.05,-6 c -0.39,-3.58 -0.96,-10.33 -1.28,-15 -0.31,-4.67 -1,-12.77 -1.54,-18 -0.54,-5.23 -0.93,-21.51 -0.86,-36.2 0.07,-14.68 -0.16,-27.17 -0.52,-27.75 -0.42,-0.68 -8.6,-1.05 -23.51,-1.05 -12.57,0 -23.57,-0.27 -24.44,-0.61 -1.34,-0.51 -1.58,-2.84 -1.58,-15.5 V 173 h 148.11 l -0.3,15.25 -0.31,15.25 -24.92,0.27 c -14.5,0.15 -25.42,0.68 -26.11,1.25 -0.85,0.71 -1.38,10.58 -1.85,34.74 -0.36,18.55 -1.19,39.47 -1.83,46.46 l -1.17,12.73 -14.05,0.27 c -13.15,0.26 -14.07,0.41 -14.4,2.28 -0.81,4.47 -1.98,3.27 -3.12,-3.18 -1.59,-9 -1.9,-9.87 -3.09,-8.68 -0.53,0.53 -1.32,5 -1.75,9.92 l -0.77,8.94 z M 191,247.69 c 11.71,-3.2 16.53,-9.98 16.46,-23.19 -0.04,-6.86 -0.41,-8.57 -2.62,-12 -5.73,-8.88 -9.04,-9.92 -31.84,-9.96 l -17.5,-0.04 -0.27,21.98 c -0.15,12.08 -0.05,22.55 0.22,23.25 0.66,1.71 29.23,1.68 35.55,-0.04 z"
       fill="#024bbb"
       id="path2" />
    <path
       d="m 380,457.12 c -6.47,1.37 -221.04,2.15 -237.5,0.86 C 115.04,455.84 95.71,447.83 79.94,432.06 70.15,422.27 61.04,406.64 58.04,394.5 53.69,376.91 53.74,378.35 53.3,267 52.8,143.37 53.3,131.35 59.67,112.03 68.18,86.22 92.84,63.8 119.5,57.64 c 2.61,-0.6 4.82,-1.12 7.05,-1.56 13.03,-2.58 26.59,-2.58 125.77,-2.58 h 3.68 3.68 c 99.18,0 112.74,0 125.77,2.58 2.23,0.44 4.44,0.96 7.05,1.56 29.47,6.81 55.1,32.44 61.86,61.86 0.61,2.64 1.13,4.87 1.57,7.12 2.57,13.04 2.57,26.59 2.57,124.79 V 255 c 0,118.99 -0.05,120.75 -4.21,138 -4.55,18.88 -17.8,37.86 -34.17,48.93 -11.53,7.81 -19.48,10.82 -40.12,15.19 z M 156,280 l 13.75,-0.01 c 19.23,-0.03 41.35,-1.68 48.07,-3.59 13.05,-3.73 25.01,-13.21 30.63,-24.31 5.52,-10.89 7.23,-28.78 3.97,-41.45 -3.42,-13.26 -12.85,-25.39 -24.6,-31.66 -11.83,-6.3 -18.53,-6.95 -71.57,-6.97 L 109,172 v 168 h 47 z m 200,-73.97 51.5,-0.53 0.27,-16.75 0.28,-16.75 h -151.1 l 0.28,16.75 0.27,16.75 25.25,0.27 25.25,0.26 V 340 h 48 z m -199.5,-2.53 17.28,0.2 c 16.84,0.2 17.42,0.28 22.48,3 7.24,3.9 9.7,8.48 9.72,18.08 0.02,8.83 -1.53,12.88 -6.53,17 -5.1,4.2 -10.66,5.22 -28.52,5.22 h -14.97 z"
       fill="#edda05"
       id="path3" />
    <path
       d="M 0,256 V 0 H 256 512 V 256 512 H 256 0 Z m 380,201.12 c 20.64,-4.37 28.59,-7.38 40.12,-15.19 16.37,-11.07 29.62,-30.05 34.17,-48.93 4.16,-17.25 4.21,-19.01 4.21,-138 0,-118.72 0.04,-117.31 -4.14,-135.5 C 447.6,90.08 421.97,64.45 392.5,57.64 374.36,53.46 375.8,53.5 256,53.5 136.2,53.5 137.64,53.46 119.5,57.64 92.84,63.8 68.18,86.22 59.67,112.03 53.3,131.35 52.8,143.37 53.3,267 c 0.44,111.35 0.39,109.91 4.74,127.5 3,12.14 12.11,27.77 21.9,37.56 15.77,15.77 35.1,23.78 62.56,25.92 16.46,1.29 231.03,0.51 237.5,-0.86 z"
       fill="#fefefd"
       id="path4" />
    <path
       d="m 380,457.12 c -6.47,1.37 -221.04,2.15 -237.5,0.86 C 115.04,455.84 95.71,447.83 79.94,432.06 70.15,422.27 61.04,406.64 58.04,394.5 53.69,376.91 53.74,378.35 53.3,267 52.8,143.37 53.3,131.35 59.67,112.03 68.18,86.22 92.84,63.8 119.5,57.64 c 2.61,-0.6 4.82,-1.12 7.05,-1.56 13.03,-2.58 26.59,-2.58 125.77,-2.58 h 3.68 3.68 c 99.18,0 112.74,0 125.77,2.58 2.23,0.44 4.44,0.96 7.05,1.56 29.47,6.81 55.1,32.44 61.86,61.86 0.61,2.64 1.13,4.87 1.57,7.12 2.57,13.04 2.57,26.59 2.57,124.79 V 255 c 0,118.99 -0.05,120.75 -4.21,138 -4.55,18.88 -17.8,37.86 -34.17,48.93 -11.53,7.81 -19.48,10.82 -40.12,15.19 z M 156,280 l 13.75,-0.01 c 19.23,-0.03 41.35,-1.68 48.07,-3.59 13.05,-3.73 25.01,-13.21 30.63,-24.31 5.52,-10.89 7.23,-28.78 3.97,-41.45 -3.42,-13.26 -12.85,-25.39 -24.6,-31.66 -11.83,-6.3 -18.53,-6.95 -71.57,-6.97 L 109,172 v 168 h 47 z m 200,-73.97 51.5,-0.53 0.27,-16.75 0.28,-16.75 h -151.1 l 0.28,16.75 0.27,16.75 25.25,0.27 25.25,0.26 V 340 h 48 z m -199.5,-2.53 17.28,0.2 c 16.84,0.2 17.42,0.28 22.48,3 7.24,3.9 9.7,8.48 9.72,18.08 0.02,8.83 -1.53,12.88 -6.53,17 -5.1,4.2 -10.66,5.22 -28.52,5.22 h -14.97 z"
       fill="#edda05"
       id="path5" />
  </g>
</svg>

<?xml version="1.0" encoding="UTF-8" standalone="no"?>
<svg
   width="512"
   height="512"
   viewBox="0 0 512 512"
   version="1.1"
   id="svg4"
   sodipodi:docname="logo_poste.svg"
   inkscape:export-filename="logo_poste.svg"
   inkscape:export-xdpi="80.625"
   inkscape:export-ydpi="80.625"
   inkscape:version="1.4.4 (dcaf3e7, 2026-05-05)"
   xmlns:inkscape="http://www.inkscape.org/namespaces/inkscape"
   xmlns:sodipodi="http://sodipodi.sourceforge.net/DTD/sodipodi-0.dtd"
   xmlns="http://www.w3.org/2000/svg"
   xmlns:svg="http://www.w3.org/2000/svg">
  <defs
     id="defs4" />
  <sodipodi:namedview
     id="namedview4"
     pagecolor="#ffffff"
     bordercolor="#000000"
     borderopacity="0.25"
     inkscape:showpageshadow="2"
     inkscape:pageopacity="0.0"
     inkscape:pagecheckerboard="0"
     inkscape:deskcolor="#d1d1d1"
     inkscape:zoom="0.58708438"
     inkscape:cx="218.87825"
     inkscape:cy="74.946638"
     inkscape:window-width="1311"
     inkscape:window-height="777"
     inkscape:window-x="118"
     inkscape:window-y="30"
     inkscape:window-maximized="0"
     inkscape:current-layer="g4" />
  <g
     id="g4">
    <path
       d="M 156.00 280.00 L 156.00 340.00 L 109.00 340.00 L 109.00 172.00 L 156.25 172.01 C209.29,172.03 215.99,172.68 227.82,178.98 C239.57,185.25 249.00,197.38 252.42,210.64 C255.68,223.31 253.97,241.20 248.45,252.09 C242.83,263.19 230.87,272.67 217.82,276.40 C211.10,278.31 188.98,279.96 169.75,279.99 ZM 147.68 308.00 C148.43,310.10 149.39,307.44 151.57,297.25 C152.53,292.71 153.70,289.00 154.16,289.00 C154.62,289.00 155.00,286.06 155.00,282.47 C155.00,275.39 156.43,273.54 160.12,275.85 C162.35,277.23 207.72,277.26 208.58,275.88 C208.87,275.39 210.90,275.00 213.07,275.00 C215.25,275.00 217.92,274.55 219.01,274.00 L 222.99 272.00 C224.08,271.45 225.77,271.00 226.75,271.00 C227.72,271.00 229.09,270.08 229.79,268.96 C230.49,267.84 231.50,267.19 232.02,267.51 C233.51,268.43 242.81,259.16 244.18,255.38 C244.85,253.52 245.71,252.00 246.09,252.00 C247.28,252.00 250.35,244.69 251.32,239.50 C252.52,233.16 252.65,217.74 251.56,212.50 C250.73,208.54 246.25,198.26 243.78,194.62 C239.75,188.71 227.30,179.02 223.71,179.01 C222.73,179.00 220.85,178.29 219.52,177.42 C214.84,174.35 205.45,173.72 158.25,173.32 L 111.00 172.91 L 111.00 230.25 C111.00,264.70 111.38,287.98 111.94,288.55 C112.46,289.07 113.02,291.64 113.19,294.27 C113.36,296.89 113.84,299.02 114.25,299.02 C114.66,299.01 120.84,299.00 127.97,299.00 L 140.95 299.00 L 142.58 295.85 C144.62,291.90 145.67,293.27 146.53,300.99 C146.87,304.02 147.38,307.17 147.68,308.00 ZM 356.00 206.03 L 356.00 340.00 L 308.00 340.00 L 308.00 206.03 L 282.75 205.77 L 257.50 205.50 L 257.23 188.75 L 256.95 172.00 L 408.05 172.00 L 407.77 188.75 L 407.50 205.50 L 381.75 205.77 ZM 312.73 302.00 L 313.44 308.50 L 314.21 299.56 C314.64,294.64 315.43,290.17 315.96,289.64 C317.15,288.45 317.46,289.32 319.05,298.32 C320.19,304.77 321.36,305.97 322.17,301.50 C322.50,299.63 323.42,299.48 336.57,299.22 L 350.62 298.95 L 351.79 286.22 C352.43,279.23 353.26,258.31 353.62,239.76 C354.09,215.60 354.62,205.73 355.47,205.02 C356.16,204.45 367.08,203.92 381.58,203.77 L 406.50 203.50 L 406.81 188.25 L 407.11 173.00 L 259.00 173.00 L 259.00 187.89 C259.00,200.55 259.24,202.88 260.58,203.39 C261.45,203.73 272.45,204.00 285.02,204.00 C299.93,204.00 308.11,204.37 308.53,205.05 C308.89,205.63 309.12,218.12 309.05,232.80 C308.98,247.49 309.37,263.77 309.91,269.00 C310.45,274.23 311.14,282.33 311.45,287.00 C311.77,291.67 312.34,298.42 312.73,302.00 ZM 191.00 247.69 C184.68,249.41 156.11,249.44 155.45,247.73 C155.18,247.03 155.08,236.56 155.23,224.48 L 155.50 202.50 L 173.00 202.54 C195.80,202.58 199.11,203.62 204.84,212.50 C207.05,215.93 207.42,217.64 207.46,224.50 C207.53,237.71 202.71,244.49 191.00,247.69 ZM 156.50 203.50 L 155.96 247.00 L 170.93 247.00 C188.79,247.00 194.35,245.98 199.45,241.78 C204.45,237.66 206.00,233.61 205.98,224.78 C205.96,215.18 203.50,210.60 196.26,206.70 C191.20,203.98 190.62,203.90 173.78,203.70 Z"
       fill="rgb(12,77,153)"
       id="path1" />
    <path
       d="M 147.68 308.00 C147.38,307.17 146.87,304.02 146.53,300.99 C145.67,293.27 144.62,291.90 142.58,295.85 L 140.95 299.00 L 127.97 299.00 C120.84,299.00 114.66,299.01 114.25,299.02 C113.84,299.02 113.36,296.89 113.19,294.27 C113.02,291.64 112.46,289.07 111.94,288.55 C111.38,287.98 111.00,264.70 111.00,230.25 L 111.00 172.91 L 158.25 173.32 C205.45,173.72 214.84,174.35 219.52,177.42 C220.85,178.29 222.73,179.00 223.71,179.01 C227.30,179.02 239.75,188.71 243.78,194.62 C246.25,198.26 250.73,208.54 251.56,212.50 C252.65,217.74 252.52,233.16 251.32,239.50 C250.35,244.69 247.28,252.00 246.09,252.00 C245.71,252.00 244.85,253.52 244.18,255.38 C242.81,259.16 233.51,268.43 232.02,267.51 C231.50,267.19 230.49,267.84 229.79,268.96 C229.09,270.08 227.72,271.00 226.75,271.00 C225.77,271.00 224.08,271.45 222.99,272.00 L 219.01 274.00 C217.92,274.55 215.25,275.00 213.07,275.00 C210.90,275.00 208.87,275.39 208.58,275.88 C207.72,277.26 162.35,277.23 160.12,275.85 C156.43,273.54 155.00,275.39 155.00,282.47 C155.00,286.06 154.62,289.00 154.16,289.00 C153.70,289.00 152.53,292.71 151.57,297.25 C149.39,307.44 148.43,310.10 147.68,308.00 ZM 312.73 302.00 C312.34,298.42 311.77,291.67 311.45,287.00 C311.14,282.33 310.45,274.23 309.91,269.00 C309.37,263.77 308.98,247.49 309.05,232.80 C309.12,218.12 308.89,205.63 308.53,205.05 C308.11,204.37 299.93,204.00 285.02,204.00 C272.45,204.00 261.45,203.73 260.58,203.39 C259.24,202.88 259.00,200.55 259.00,187.89 L 259.00 173.00 L 407.11 173.00 L 406.81 188.25 L 406.50 203.50 L 381.58 203.77 C367.08,203.92 356.16,204.45 355.47,205.02 C354.62,205.73 354.09,215.60 353.62,239.76 C353.26,258.31 352.43,279.23 351.79,286.22 L 350.62 298.95 L 336.57 299.22 C323.42,299.48 322.50,299.63 322.17,301.50 C321.36,305.97 320.19,304.77 319.05,298.32 C317.46,289.32 317.15,288.45 315.96,289.64 C315.43,290.17 314.64,294.64 314.21,299.56 L 313.44 308.50 ZM 191.00 247.69 C202.71,244.49 207.53,237.71 207.46,224.50 C207.42,217.64 207.05,215.93 204.84,212.50 C199.11,203.62 195.80,202.58 173.00,202.54 L 155.50 202.50 L 155.23 224.48 C155.08,236.56 155.18,247.03 155.45,247.73 C156.11,249.44 184.68,249.41 191.00,247.69 Z"
       fill="rgb(2,75,187)"
       id="path2" />
    <path
       d="M 380.00 457.12 C373.53,458.49 158.96,459.27 142.50,457.98 C115.04,455.84 95.71,447.83 79.94,432.06 C70.15,422.27 61.04,406.64 58.04,394.50 C53.69,376.91 53.74,378.35 53.30,267.00 C52.80,143.37 53.30,131.35 59.67,112.03 C68.18,86.22 92.84,63.80 119.50,57.64 C122.11,57.04 124.32,56.52 126.55,56.08 C139.58,53.50 153.14,53.50 252.32,53.50 L 256.00 53.50 L 259.68 53.50 C358.86,53.50 372.42,53.50 385.45,56.08 C387.68,56.52 389.89,57.04 392.50,57.64 C421.97,64.45 447.60,90.08 454.36,119.50 C454.97,122.14 455.49,124.37 455.93,126.62 C458.50,139.66 458.50,153.21 458.50,251.41 L 458.50 255.00 C458.50,373.99 458.45,375.75 454.29,393.00 C449.74,411.88 436.49,430.86 420.12,441.93 C408.59,449.74 400.64,452.75 380.00,457.12 ZM 156.00 280.00 L 169.75 279.99 C188.98,279.96 211.10,278.31 217.82,276.40 C230.87,272.67 242.83,263.19 248.45,252.09 C253.97,241.20 255.68,223.31 252.42,210.64 C249.00,197.38 239.57,185.25 227.82,178.98 C215.99,172.68 209.29,172.03 156.25,172.01 L 109.00 172.00 L 109.00 340.00 L 156.00 340.00 ZM 356.00 206.03 L 407.50 205.50 L 407.77 188.75 L 408.05 172.00 L 256.95 172.00 L 257.23 188.75 L 257.50 205.50 L 282.75 205.77 L 308.00 206.03 L 308.00 340.00 L 356.00 340.00 ZM 156.50 203.50 L 173.78 203.70 C190.62,203.90 191.20,203.98 196.26,206.70 C203.50,210.60 205.96,215.18 205.98,224.78 C206.00,233.61 204.45,237.66 199.45,241.78 C194.35,245.98 188.79,247.00 170.93,247.00 L 155.96 247.00 Z"
       fill="rgb(237,218,5)"
       id="path3" />
    <path
       d="M 0.00 256.00 L 0.00 0.00 L 256.00 0.00 L 512.00 0.00 L 512.00 256.00 L 512.00 512.00 L 256.00 512.00 L 0.00 512.00 L 0.00 256.00 ZM 380.00 457.12 C400.64,452.75 408.59,449.74 420.12,441.93 C436.49,430.86 449.74,411.88 454.29,393.00 C458.45,375.75 458.50,373.99 458.50,255.00 C458.50,136.28 458.54,137.69 454.36,119.50 C447.60,90.08 421.97,64.45 392.50,57.64 C374.36,53.46 375.80,53.50 256.00,53.50 C136.20,53.50 137.64,53.46 119.50,57.64 C92.84,63.80 68.18,86.22 59.67,112.03 C53.30,131.35 52.80,143.37 53.30,267.00 C53.74,378.35 53.69,376.91 58.04,394.50 C61.04,406.64 70.15,422.27 79.94,432.06 C95.71,447.83 115.04,455.84 142.50,457.98 C158.96,459.27 373.53,458.49 380.00,457.12 Z"
       fill="rgb(254,254,253)"
       id="path4" />
    <path
       d="M 380.00 457.12 C373.53,458.49 158.96,459.27 142.50,457.98 C115.04,455.84 95.71,447.83 79.94,432.06 C70.15,422.27 61.04,406.64 58.04,394.50 C53.69,376.91 53.74,378.35 53.30,267.00 C52.80,143.37 53.30,131.35 59.67,112.03 C68.18,86.22 92.84,63.80 119.50,57.64 C122.11,57.04 124.32,56.52 126.55,56.08 C139.58,53.50 153.14,53.50 252.32,53.50 L 256.00 53.50 L 259.68 53.50 C358.86,53.50 372.42,53.50 385.45,56.08 C387.68,56.52 389.89,57.04 392.50,57.64 C421.97,64.45 447.60,90.08 454.36,119.50 C454.97,122.14 455.49,124.37 455.93,126.62 C458.50,139.66 458.50,153.21 458.50,251.41 L 458.50 255.00 C458.50,373.99 458.45,375.75 454.29,393.00 C449.74,411.88 436.49,430.86 420.12,441.93 C408.59,449.74 400.64,452.75 380.00,457.12 ZM 156.00 280.00 L 169.75 279.99 C188.98,279.96 211.10,278.31 217.82,276.40 C230.87,272.67 242.83,263.19 248.45,252.09 C253.97,241.20 255.68,223.31 252.42,210.64 C249.00,197.38 239.57,185.25 227.82,178.98 C215.99,172.68 209.29,172.03 156.25,172.01 L 109.00 172.00 L 109.00 340.00 L 156.00 340.00 ZM 356.00 206.03 L 407.50 205.50 L 407.77 188.75 L 408.05 172.00 L 256.95 172.00 L 257.23 188.75 L 257.50 205.50 L 282.75 205.77 L 308.00 206.03 L 308.00 340.00 L 356.00 340.00 ZM 156.50 203.50 L 173.78 203.70 C190.62,203.90 191.20,203.98 196.26,206.70 C203.50,210.60 205.96,215.18 205.98,224.78 C206.00,233.61 204.45,237.66 199.45,241.78 C194.35,245.98 188.79,247.00 170.93,247.00 L 155.96 247.00 Z"
       fill="rgb(237,218,5)"
       id="path5" />
  </g>
</svg>
